_inc/systems/logos/gamegear.svg

<?xml version="1.0" encoding="utf-8"?>
<svg version="1.1" viewBox="0 0 264 31" xmlns="http://www.w3.org/2000/svg">
  <g transform="matrix(0.44, 0, 0, 0.433041, -0.000108, 0.000185)">
    <path id="path5" d="M 225.74 59.585 C 220.683 66.455 215.674 68.407 213.483 69.46 C 211.296 70.516 207.98 71.343 205.08 71.343 C 196.943 71.343 190.594 68.691 186.029 63.405 C 181.464 58.097 179.183 50.657 179.183 41.004 C 179.183 29.596 182.061 19.919 187.842 11.932 C 193.621 3.97 201.284 0.002 210.834 0.002 C 218.079 0.002 224.005 2.036 228.645 6.127 C 233.283 10.198 235.591 16.597 235.591 25.302 L 221.576 25.302 C 221.576 21.135 220.656 18.208 218.818 16.522 C 216.986 14.859 214.352 14.014 210.907 14.014 C 205.276 14.014 200.934 16.769 197.833 22.252 C 194.758 27.758 193.192 34.007 193.192 41.028 C 193.192 45.817 194.212 49.736 196.194 52.76 C 198.204 55.813 201.203 57.325 205.201 57.325 C 209.368 57.325 212.59 56.133 214.923 53.776 C 217.231 51.447 218.942 48.418 220.034 44.721 L 206.984 44.721 L 209.096 32.022 L 234.544 32.022 L 232.387 44.323 C 232.39 44.329 230.776 52.714 225.74 59.585 L 225.74 59.585 Z" style="fill-opacity: 1; fill: rgb(255, 255, 255);"/>
    <polygon id="polygon9" points="346.74 1.764 335.355 69.684 323.102 69.684 332.751 17.044 311.467 69.684 301.423 69.684 296.785 17.068 289.462 69.684 277.064 69.684 288.397 1.764 305.789 1.764 309.684 49.588 329.23 1.637" style="fill-opacity: 1; fill: rgb(255, 255, 255);"/>
    <polygon id="polygon11" points="359.714 28.057 379.734 28.057 377.646 41.23 357.629 41.23 355.052 55.692 377.646 55.692 375.419 69.684 339.797 69.684 351.057 1.689 386.254 1.689 384.1 15.777 361.947 15.777" style="fill-opacity: 1; fill: rgb(255, 255, 255);"/>
    <path id="path13" d="M 253.028 1.637 L 225.643 69.684 L 238.989 69.684 L 243.874 56.411 L 261.338 56.411 L 262.478 69.684 L 275.401 69.684 L 267.662 1.64 L 253.028 1.64 Z M 248.116 44.803 L 258.04 17.738 L 260.345 44.803 L 248.116 44.803 Z" style="fill-opacity: 1; fill: rgb(255, 255, 255);"/>
    <path id="path5_1_" d="M 455.384 59.585 C 450.324 66.455 445.321 68.407 443.13 69.46 C 440.94 70.516 437.624 71.343 434.724 71.343 C 426.59 71.343 420.238 68.691 415.676 63.408 C 411.108 58.097 408.827 50.657 408.827 41.007 C 408.827 29.596 411.705 19.922 417.486 11.935 C 423.264 3.973 430.928 0.002 440.481 0.002 C 447.723 0.002 453.652 2.039 458.289 6.13 C 462.93 10.201 465.235 16.6 465.235 25.305 L 451.223 25.305 C 451.223 21.138 450.306 18.211 448.468 16.525 C 446.633 14.862 444.002 14.02 440.554 14.02 C 434.923 14.02 430.581 16.772 427.483 22.255 C 424.405 27.761 422.842 34.01 422.842 41.031 C 422.842 45.82 423.859 49.739 425.841 52.763 C 427.854 55.816 430.853 57.328 434.848 57.328 C 439.018 57.328 442.24 56.139 444.573 53.779 C 446.881 51.45 448.592 48.424 449.684 44.725 L 436.634 44.725 L 438.743 32.025 L 464.194 32.025 L 462.034 44.329 C 462.034 44.329 460.42 52.714 455.384 59.585 L 455.384 59.585 Z" style="fill-opacity: 1; fill: rgb(255, 255, 255);"/>
    <polygon id="polygon15" points="481.532 28.081 501.524 28.081 499.466 41.23 479.447 41.23 476.846 55.692 499.466 55.692 497.234 69.705 461.611 69.705 472.875 1.689 508.075 1.689 505.917 15.777 483.761 15.777" style="fill-opacity: 1; fill: rgb(255, 255, 255);"/>
    <path id="path17" d="M 525.783 1.665 L 498.398 69.708 L 511.771 69.708 L 516.629 56.435 L 534.117 56.435 L 535.258 69.708 L 548.157 69.708 L 540.417 1.665 L 525.783 1.665 Z M 520.895 44.8 L 530.795 17.738 L 533.127 44.8 L 520.895 44.8 Z" style="fill-opacity: 1; fill: rgb(255, 255, 255);"/>
    <path id="path19" d="M 568.846 31.578 L 571.824 14.835 L 578.966 14.835 C 581.594 14.835 583.556 15.306 584.871 16.25 C 586.184 17.216 586.829 19.126 586.829 22.004 C 586.829 25.23 585.764 27.61 583.655 29.197 C 581.519 30.788 578.818 31.578 575.545 31.578 L 568.846 31.578 L 568.846 31.578 Z M 560.784 1.689 L 549.523 69.705 L 562.543 69.705 L 566.912 43.783 L 572.938 43.783 L 583.009 69.705 L 597.942 69.705 L 586.778 41.004 C 590.673 39.022 594.023 35.721 596.355 32.275 C 598.784 28.727 600 24.584 600 19.847 C 600 13.423 598.561 8.807 595.658 5.955 C 592.783 3.104 588.685 1.689 583.429 1.689 L 560.784 1.689 L 560.784 1.689 Z" style="fill-opacity: 1; fill: rgb(255, 255, 255);"/>
    <path id="path21" d="M 10.872 27.816 C 22.361 8.544 38.181 -3.486 46.204 0.907 C 54.209 5.319 51.388 24.515 39.874 43.774 C 28.384 63.049 12.567 75.076 4.562 70.682 C -3.461 66.274 -0.621 47.072 10.872 27.816 Z" style="fill-opacity: 1; fill: rgb(255, 255, 255);"/>
    <path id="path21_2_" d="M 62.277 27.816 C 73.77 8.544 89.587 -3.486 97.607 0.907 C 105.612 5.319 102.791 24.515 91.28 43.774 C 79.787 63.049 63.97 75.076 55.968 70.682 C 47.945 66.274 50.784 47.072 62.277 27.816 Z" style="fill-opacity: 1; fill: rgb(255, 255, 255);"/>
    <path id="path21_3_" d="M 113.683 27.816 C 125.173 8.541 140.993 -3.486 149.013 0.904 C 157.018 5.316 154.196 24.515 142.685 43.774 C 131.193 63.049 115.379 75.076 107.374 70.679 C 99.348 66.274 102.19 47.072 113.683 27.816 Z" style="fill-opacity: 1; fill: rgb(255, 255, 255);"/>
  </g>
</svg>

<svg xmlns="http://www.w3.org/2000/svg" viewBox="0 0 264 31"><path d="M225.74 59.59c-5.06 6.86-10.07 8.82-12.26 9.87a21 21 0 0 1-8.4 1.88q-12.21 0-19.05-7.94c-4.57-5.3-6.85-12.74-6.85-22.4q0-17.1 8.66-29.07Q196.5 0 210.84 0q10.85 0 17.8 6.13 6.95 6.11 6.95 19.17h-14.01q0-6.25-2.76-8.78-2.75-2.5-7.91-2.5-8.44 0-13.08 8.23-4.62 8.25-4.64 18.78.02 7.18 3 11.73 3.01 4.57 9.01 4.57 6.24-.01 9.72-3.55a21 21 0 0 0 5.11-9.06h-13.05l2.12-12.7h25.44l-2.15 12.3s-1.61 8.4-6.65 15.27m121-57.83-11.38 67.92H323.1l9.65-52.64-21.28 52.64h-10.05l-4.63-52.61-7.33 52.61h-12.4L288.4 1.76h17.39l3.89 47.83 19.55-47.95zm12.97 26.3h20.02l-2.08 13.17h-20.02l-2.58 14.46h22.6l-2.23 13.99H339.8l11.26-67.99h35.19l-2.15 14.09h-22.15zM253.03 1.64l-27.39 68.04H239l4.88-13.27h17.47l1.14 13.27h12.92l-7.74-68.04zm-4.91 43.16 9.92-27.06 2.3 27.06zm207.26 14.79c-5.06 6.86-10.06 8.82-12.25 9.87a21 21 0 0 1-8.4 1.88q-12.22 0-19.05-7.93-6.85-7.95-6.85-22.4 0-17.1 8.66-29.07 8.66-11.95 23-11.94 10.84 0 17.8 6.13 6.95 6.11 6.94 19.18h-14q0-6.26-2.76-8.78-2.75-2.5-7.92-2.51-8.43 0-13.07 8.24-4.63 8.25-4.64 18.77.01 7.18 3 11.73 3.01 4.58 9 4.57 6.25-.01 9.73-3.55a21 21 0 0 0 5.11-9.05h-13.05l2.11-12.7h25.45l-2.16 12.3s-1.61 8.38-6.65 15.26m26.15-31.51h19.99l-2.05 13.15h-20.02l-2.6 14.46h22.62l-2.24 14.02h-35.62l11.27-68.02h35.2l-2.16 14.09h-22.16zm44.25-26.41L498.4 69.7h13.37l4.86-13.27h17.49l1.14 13.27h12.9l-7.74-68.04zM520.9 44.8l9.9-27.06 2.33 27.06zm47.95-13.22 2.97-16.74h7.15q3.93 0 5.9 1.41 1.96 1.45 1.96 5.75 0 4.83-3.18 7.2-3.2 2.38-8.1 2.38zm-8.07-29.9L549.52 69.7h13.02l4.37-25.92h6.03L583 69.7h14.93L586.78 41a26.6 26.6 0 0 0 9.58-8.73A21.5 21.5 0 0 0 600 19.85q0-9.63-4.34-13.9T583.43 1.7zM10.87 27.82C22.37 8.54 38.18-3.48 46.2.9c8 4.4 5.19 23.6-6.33 42.86-11.49 19.28-27.3 31.3-35.3 26.91-8.03-4.4-5.2-23.6 6.3-42.86m51.41.01C73.77 8.54 89.58-3.48 97.6.9c8 4.4 5.18 23.6-6.33 42.86-11.5 19.28-27.31 31.3-35.31 26.91-8.02-4.4-5.19-23.6 6.3-42.86m51.42.01C125.18 8.54 141-3.48 149.01.9c8 4.42 5.19 23.62-6.32 42.87-11.5 19.28-27.31 31.3-35.32 26.9s-5.18-23.6 6.31-42.85" style="fill-opacity:1;fill:#fff" transform="scale(.44 .43304)"/></svg>
